X:1
T:Title
%%score ( 1 2 ) { 3 | 4 }
L:1/8
Q:1/4=110
M:4/4
K:G
V:1 treble nm="Grand Piano, Staff 1"
V:2 treble 
V:3 bass nm="Choir Pad, New Calabar, 77.77"
V:4 bass 
V:1
 [GB]3 [FA] G2 [DF]2 | [DF]2 [CE]2 [B,D]4 | [DG]2 AB [Gc]2 [FB]2 | [EA]2 [EG]2 [FA]4 | %4
w: By~John~Downing~Farrer~(1829\-1919) * * *||||
 d2- [Ed][Fc] [GB]2 G2 | z2 B2 z4 | [FA]2 [GB][Ac] [Gd]2 [GB]2 | [GA]2 [FA]2 G4- | G4 z4 |] %9
w: |||||
V:2
 x8 | x8 | z2 D2 z4 | x8 | D2 z2 z4 | [EA]A z ^G [Ac]4 | x8 | x8 | x8 |] %9
V:3
 D3 C B,2 B,A, | G,2 G,A, B,4 | B,2 A,2 G,A, B,2 | C2 B,2 D4 | B,3 C D2 G,B, | E2 D2 C4 | %6
 D2 D2[K:bass] G,2 B,2 | E2 DC B,4- | B,4 z4 |] %9
V:4
 G,3 G, G,2 B,,2 | C,D,E,F, G,4 | G,2 F,2 E,2 D,2 | C,2 E,2 D,4 | z2 z A, G,F,E,D, | %5
 C,2 B,,2 A,,4 | D,2 C,2 B,,2 E,D, | C,2 D,2 G,,4- | G,,4 z4 |] %9

